!!! OTL: Mei^. LI\, De,Gu-, Nian/ (Beautiful Lady)
!!! YEC: COpyright. 2001, CHia-wei Lee
!! For Voice Only
!![Allegro]
**kern	**silbe
*clefG2	*LXinhua
*E:	*ping-ying
*M3/4	*
=6	=6
8b	Mei^
16b	Li\
16b	De
8.ee	Gu-
16dd	Nian/
8cc#	Jian\
8dd#	Guo\
*M2/4	*
=7	=7
8.e	Wan\
16cc#	|
2b	Qian-
*M3/4	*
=8	=8
8b	Wei/
8b	You/
8ee	Ni^
8dd#	|
8cc#	Zui\
8dd#	Ko^
*M4/4	*
=9	=9
1ee	Ai\
*M3/4	*
=10	=10
8b	Ni^
8b	Xiang\
8ee	Chong-
8dd#	Chu-
8cc#	Zhao-
8dd#	Xia/
*M2/4	*
=11	=11
8.ee	Tai\
16cc#	|
8b	Yang/
8g#	|
*M3/4	*
=12	=12
8b	Wu/
8b	Bi^
16cc#	De
16ee	Sing-
16cc#	|
16bb	|
8g#	Xian-
8e	|
*M(4/4)	*
=13	=13
16f#	Gu-
16g#	|
16f#	Nian/
16e	|
2.e	A!
*-	*-
